symbolic/32x32/apps/half-life2.svg

<svg xmlns="http://www.w3.org/2000/svg" width="32" height="32" version="1">
 <path fill="#f37b21" d="m16 2c-7.716 0-14 6.2843-14 14 0 7.716 6.2843 14 14 14 7.716 0 14-6.284 14-14 0-7.7157-6.284-14-14-14z"/>
 <path opacity=".2" d="m16 7a10 10 0 0 0 -10 10 10 10 0 0 0 10 10 10 10 0 0 0 10 -10 10 10 0 0 0 -10 -10zm-4.0112 2.9443h3.8318l4.3994 11.189 1.9348-0.62988 0.64453 2.1667-4.1724 1.2048-2.8064-7.1143-4.115 6.4844h-2.5806l5.7471-9.281-0.64453-1.8335h-2.2388v-2.1863z"/>
 <path fill="#fff" d="m16 6a10 10 0 0 0 -10 10 10 10 0 0 0 10 10 10 10 0 0 0 10 -10 10 10 0 0 0 -10 -10zm-4.0112 2.9443h3.8318l4.3994 11.189 1.9348-0.62988 0.64453 2.1667-4.1724 1.2048-2.8064-7.1143-4.115 6.4844h-2.5806l5.7471-9.281-0.64453-1.8335h-2.2388v-2.1863z"/>
 <path fill="#fff" opacity=".2" d="m16 2c-7.716 0-14 6.2843-14 14 0 0.169 0.0194 0.333 0.0254 0.5 0.2664-7.4835 6.4273-13.5 13.975-13.5 7.547 0 13.708 6.0164 13.975 13.5 0.006-0.167 0.025-0.331 0.025-0.5 0-7.7157-6.284-14-14-14z"/>
 <path opacity=".2" d="m2.0254 16.5c-0.006 0.167-0.0254 0.331-0.0254 0.5 0 7.716 6.2843 14 14 14 7.716 0 14-6.284 14-14 0-0.169-0.019-0.333-0.025-0.5-0.267 7.484-6.428 13.5-13.975 13.5-7.5471 0-13.708-6.016-13.975-13.5z"/>
 <circle style="fill:#42a1cd" cx="24" cy="23" r="8"/>
 <path style="opacity:0.3" d="M 31.979,23.424 A 8,8 0 0 1 24,31 8,8 0 0 1 16.021,23.576 8,8 0 0 0 16,24 a 8,8 0 0 0 8,8 8,8 0 0 0 8,-8 8,8 0 0 0 -0.02148,-0.57617 z"/>
 <path style="fill:#ffffff;fill-rule:evenodd" d="m 23.999984,20.000055 c 0,0 -0.479396,-0.01 -0.973592,0.240198 C 22.532096,20.487451 22,21.083346 22,22.000039 l 0.999992,0 c 0,-0.999992 0.999992,-0.999992 0.999992,-0.999992 0,0 0.999992,0 0.999992,0.999992 0,0.374997 -0.127499,0.657195 -0.362496,0.957493 -0.235099,0.300298 -0.582596,0.595795 -0.957593,0.908292 -0.374997,0.312498 -0.777494,0.641995 -1.104892,1.060492 C 22.247498,25.344713 22,25.875009 22,26.500004 L 22,27 l 3.999969,0 0,-0.999992 -2.908778,0 c 0.061,-0.157399 0.152199,-0.305298 0.271398,-0.457497 0.234998,-0.300297 0.582495,-0.595795 0.957493,-0.908293 0.374997,-0.312497 0.777493,-0.641995 1.104991,-1.060491 0.327397,-0.418397 0.574896,-0.948693 0.574896,-1.573688 0,-0.916693 -0.532096,-1.512588 -1.026393,-1.759786 -0.494195,-0.247098 -0.973592,-0.240198 -0.973592,-0.240198 z"/>
</svg>

<svg xmlns="http://www.w3.org/2000/svg" width="32" height="32" version="1"><path fill="#f37b21" d="M16 2C8.284 2 2 8.284 2 16s6.284 14 14 14 14-6.284 14-14S23.716 2 16 2z"/><path opacity=".2" d="M16 7A10 10 0 0 0 6 17a10 10 0 0 0 10 10 10 10 0 0 0 10-10A10 10 0 0 0 16 7zm-4.011 2.944h3.832l4.399 11.19 1.935-.63.644 2.166-4.172 1.205-2.806-7.114-4.115 6.484H9.125l5.747-9.281-.645-1.833H11.99V9.944z"/><path fill="#fff" d="M16 6A10 10 0 0 0 6 16a10 10 0 0 0 10 10 10 10 0 0 0 10-10A10 10 0 0 0 16 6zm-4.011 2.944h3.832l4.399 11.19 1.935-.63.644 2.166-4.172 1.205-2.806-7.114-4.115 6.484H9.125l5.747-9.281-.645-1.833H11.99V8.944z"/><path fill="#fff" opacity=".2" d="M16 2C8.284 2 2 8.284 2 16c0 .169.02.333.025.5C2.292 9.016 8.453 3 16 3s13.708 6.016 13.975 13.5c.006-.167.025-.331.025-.5 0-7.716-6.284-14-14-14z"/><path opacity=".2" d="M2.025 16.5c-.006.167-.025.331-.025.5 0 7.716 6.284 14 14 14s14-6.284 14-14c0-.169-.019-.333-.025-.5C29.708 23.984 23.547 30 16 30S2.292 23.984 2.025 16.5z"/><circle style="fill:#42a1cd" cx="24" cy="23" r="8"/><path style="opacity:.3" d="M31.979 23.424A8 8 0 0 1 24 31a8 8 0 0 1-7.979-7.424A8 8 0 0 0 16 24a8 8 0 0 0 8 8 8 8 0 0 0 8-8 8 8 0 0 0-.021-.576z"/><path style="fill:#fff;fill-rule:evenodd" d="M24 20s-.48-.01-.974.24C22.532 20.487 22 21.083 22 22h1c0-1 1-1 1-1s1 0 1 1c0 .375-.128.657-.363.958-.235.3-.582.595-.957.908-.375.312-.778.642-1.105 1.06-.328.419-.575.949-.575 1.574v.5h4v-1h-2.909c.061-.157.152-.305.272-.457.235-.3.582-.596.957-.909.375-.312.778-.642 1.105-1.06.327-.419.575-.949.575-1.574 0-.917-.532-1.513-1.026-1.76C24.479 19.993 24 20 24 20z"/></svg>
